tools/download-figma-icons/icons/outlined-medium/calendar.svg

<svg width="24" height="24" viewBox="0 0 24 24" fill="none" xmlns="http://www.w3.org/2000/svg">
<path fill-rule="evenodd" clip-rule="evenodd" d="M20.838 22.4998H3.16211C2.24562 22.4998 1.50012 21.7543 1.50012 20.8378V8.24994H22.5V20.8378C22.5 21.7543 21.7545 22.4998 20.838 22.4998ZM3.16211 2.99998H5.25009V3.74997C5.25009 4.16472 5.58534 4.49997 6.00009 4.49997C6.41484 4.49997 6.75008 4.16472 6.75008 3.74997V2.99998H17.25V3.74997C17.25 4.16472 17.5853 4.49997 18 4.49997C18.4147 4.49997 18.75 4.16472 18.75 3.74997V2.99998H20.838C21.7545 2.99998 22.5 3.74547 22.5 4.66196V6.74995H1.50012V4.66196C1.50012 3.74547 2.24562 2.99998 3.16211 2.99998ZM20.838 1.49999H18.75V0.749994C18.75 0.335247 18.4148 0 18 0C17.5853 0 17.2501 0.335247 17.2501 0.749994V1.49999H6.75013V0.749994C6.75013 0.335247 6.41488 0 6.00014 0C5.58539 0 5.25014 0.335247 5.25014 0.749994V1.49999H3.16216C1.41842 1.49999 0.000183104 2.91898 0.000183104 4.66196V20.8378C0.000183104 22.5808 1.41842 23.9998 3.16216 23.9998H20.838C22.581 23.9998 24 22.5808 24 20.8378V4.66196C24 2.91898 22.581 1.49999 20.838 1.49999ZM6.74993 11.2499H5.24994C4.8352 11.2499 4.49995 11.5852 4.49995 11.9999V13.4999C4.49995 13.9146 4.8352 14.2499 5.24994 14.2499H6.74993C7.16468 14.2499 7.49993 13.9146 7.49993 13.4999V11.9999C7.49993 11.5852 7.16468 11.2499 6.74993 11.2499ZM11.2499 11.2499H12.7499C13.1646 11.2499 13.4999 11.5852 13.4999 11.9999V13.4999C13.4999 13.9146 13.1646 14.2499 12.7499 14.2499H11.2499C10.8352 14.2499 10.4999 13.9146 10.4999 13.4999V11.9999C10.4999 11.5852 10.8352 11.2499 11.2499 11.2499ZM18.7498 11.2499H17.2499C16.8351 11.2499 16.4999 11.5852 16.4999 11.9999V13.4999C16.4999 13.9146 16.8351 14.2499 17.2499 14.2499H18.7498C19.1646 14.2499 19.4998 13.9146 19.4998 13.4999V11.9999C19.4998 11.5852 19.1646 11.2499 18.7498 11.2499ZM5.24994 16.4999H6.74993C7.16468 16.4999 7.49993 16.8351 7.49993 17.2499V18.7499C7.49993 19.1646 7.16468 19.4999 6.74993 19.4999H5.24994C4.8352 19.4999 4.49995 19.1646 4.49995 18.7499V17.2499C4.49995 16.8351 4.8352 16.4999 5.24994 16.4999ZM12.7499 16.4999H11.2499C10.8352 16.4999 10.4999 16.8351 10.4999 17.2499V18.7499C10.4999 19.1646 10.8352 19.4999 11.2499 19.4999H12.7499C13.1646 19.4999 13.4999 19.1646 13.4999 18.7499V17.2499C13.4999 16.8351 13.1646 16.4999 12.7499 16.4999ZM17.2499 16.4999H18.7498C19.1646 16.4999 19.4998 16.8351 19.4998 17.2499V18.7499C19.4998 19.1646 19.1646 19.4999 18.7498 19.4999H17.2499C16.8351 19.4999 16.4999 19.1646 16.4999 18.7499V17.2499C16.4999 16.8351 16.8351 16.4999 17.2499 16.4999Z" fill="black"/>
</svg>

<svg width="24" height="24" viewBox="0 0 24 24" fill="none" xmlns="http://www.w3.org/2000/svg"><path fill-rule="evenodd" clip-rule="evenodd" d="M20.838 22.5H3.162A1.664 1.664 0 0 1 1.5 20.838V8.25h21v12.588c0 .916-.745 1.662-1.662 1.662ZM3.162 3H5.25v.75a.75.75 0 1 0 1.5 0V3h10.5v.75a.75.75 0 1 0 1.5 0V3h2.088c.916 0 1.662.745 1.662 1.662V6.75h-21V4.662C1.5 3.745 2.246 3 3.162 3Zm17.676-1.5H18.75V.75a.75.75 0 1 0-1.5 0v.75H6.75V.75a.75.75 0 1 0-1.5 0v.75H3.162A3.166 3.166 0 0 0 0 4.662v16.176A3.166 3.166 0 0 0 3.162 24h17.676A3.166 3.166 0 0 0 24 20.838V4.662A3.166 3.166 0 0 0 20.838 1.5ZM6.75 11.25h-1.5a.75.75 0 0 0-.75.75v1.5c0 .415.335.75.75.75h1.5a.75.75 0 0 0 .75-.75V12a.75.75 0 0 0-.75-.75Zm4.5 0h1.5a.75.75 0 0 1 .75.75v1.5a.75.75 0 0 1-.75.75h-1.5a.75.75 0 0 1-.75-.75V12a.75.75 0 0 1 .75-.75Zm7.5 0h-1.5a.75.75 0 0 0-.75.75v1.5c0 .415.335.75.75.75h1.5a.75.75 0 0 0 .75-.75V12a.75.75 0 0 0-.75-.75ZM5.25 16.5h1.5a.75.75 0 0 1 .75.75v1.5a.75.75 0 0 1-.75.75h-1.5a.75.75 0 0 1-.75-.75v-1.5a.75.75 0 0 1 .75-.75Zm7.5 0h-1.5a.75.75 0 0 0-.75.75v1.5c0 .415.335.75.75.75h1.5a.75.75 0 0 0 .75-.75v-1.5a.75.75 0 0 0-.75-.75Zm4.5 0h1.5a.75.75 0 0 1 .75.75v1.5a.75.75 0 0 1-.75.75h-1.5a.75.75 0 0 1-.75-.75v-1.5a.75.75 0 0 1 .75-.75Z" fill="currentColor"/></svg>
